img/icn-pattern.svg

<svg id="Layer_1" xmlns="http://www.w3.org/2000/svg" viewBox="0 0 50 50"><style>.st0{fill:#FFFFFF;}</style><path class="st0" d="M9.5 17.3c-2.6 0-4.7-2.1-4.7-4.7S6.9 8 9.5 8s4.7 2.1 4.7 4.7-2.1 4.6-4.7 4.6zm0-7.2c-1.4 0-2.5 1.1-2.5 2.5s1.1 2.5 2.5 2.5S12 14 12 12.6s-1.1-2.5-2.5-2.5zm31.2 35.5c-2.6 0-4.7-2.1-4.7-4.7s2.1-4.7 4.7-4.7 4.7 2.1 4.7 4.7-2.1 4.7-4.7 4.7zm0-7.2c-1.4 0-2.5 1.1-2.5 2.5s1.1 2.5 2.5 2.5 2.5-1.1 2.5-2.5-1.1-2.5-2.5-2.5zm-3.6-23.8c-2.6 0-4.7-2.1-4.7-4.7s2.1-4.7 4.7-4.7 4.7 2.1 4.7 4.7-2.1 4.7-4.7 4.7zm0-7.2c-1.4 0-2.5 1.1-2.5 2.5s1.1 2.5 2.5 2.5 2.5-1.1 2.5-2.5-1.1-2.5-2.5-2.5zm-9.3 22.7H16.3c-.6 0-1.1-.5-1.1-1.1V17.5c0-.6.5-1.1 1.1-1.1h11.5c.6 0 1.1.5 1.1 1.1V29c0 .6-.5 1.1-1.1 1.1zm-10.4-2.2h9.4v-9.4h-9.4v9.4zm-6.3 2.2H3.8c-.6 0-1.1-.5-1.1-1.1v-7.3c0-.6.5-1.1 1.1-1.1h7.3c.6 0 1.1.5 1.1 1.1V29c0 .6-.5 1.1-1.1 1.1zm-6.2-2.2H10v-5.1H4.9v5.1zm24.2-14.6H20c-.4 0-.7-.2-.9-.5-.2-.3-.2-.7 0-1.1l4.5-7.9c.4-.7 1.5-.7 1.9 0l4.5 7.9c.2.3.2.7 0 1.1-.2.3-.5.5-.9.5zm-7.2-2.1h5.3l-2.7-4.6-2.6 4.6zm10.6 32h-9.4c-.4 0-.7-.2-.9-.5-.2-.3-.2-.7 0-1.1l4.7-8.2c.4-.7 1.5-.7 1.9 0l4.7 8.2c.2.3.2.7 0 1.1-.3.2-.6.5-1 .5zM24.9 41h5.7l-2.9-4.9-2.8 4.9zm-13.6 5.7c-3.9 0-7-3.2-7-7s3.2-7 7-7 7 3.2 7 7-3.2 7-7 7zm0-11.9c-2.7 0-4.9 2.2-4.9 4.9s2.2 4.9 4.9 4.9 4.9-2.2 4.9-4.9-2.3-4.9-4.9-4.9zm27.9-2.2c-4.4 0-8-3.6-8-8s3.6-8 8-8 8 3.6 8 8-3.6 8-8 8zm0-13.9c-3.2 0-5.9 2.6-5.9 5.9 0 3.2 2.6 5.9 5.9 5.9 3.2 0 5.9-2.6 5.9-5.9 0-3.3-2.6-5.9-5.9-5.9z"/></svg>

<?xml version="1.0" encoding="utf-8"?>
<!-- Generator: Adobe Illustrator 21.0.0, SVG Export Plug-In . SVG Version: 6.00 Build 0)  -->
<svg version="1.1" id="Layer_1" xmlns="http://www.w3.org/2000/svg" xmlns:xlink="http://www.w3.org/1999/xlink" x="0px" y="0px"
	 viewBox="0 0 50 50" style="enable-background:new 0 0 50 50;" xml:space="preserve">
<style type="text/css">
	.st0{fill:#8A8BA9;}
</style>
<path class="st0" d="M9.5,17.3c-2.6,0-4.7-2.1-4.7-4.7S6.9,8,9.5,8s4.7,2.1,4.7,4.7S12.1,17.3,9.5,17.3z M9.5,10.1
	c-1.4,0-2.5,1.1-2.5,2.5s1.1,2.5,2.5,2.5S12,14,12,12.6S10.9,10.1,9.5,10.1z M40.7,45.6c-2.6,0-4.7-2.1-4.7-4.7s2.1-4.7,4.7-4.7
	s4.7,2.1,4.7,4.7S43.3,45.6,40.7,45.6z M40.7,38.4c-1.4,0-2.5,1.1-2.5,2.5s1.1,2.5,2.5,2.5s2.5-1.1,2.5-2.5S42.1,38.4,40.7,38.4z
	 M37.1,14.6c-2.6,0-4.7-2.1-4.7-4.7s2.1-4.7,4.7-4.7s4.7,2.1,4.7,4.7S39.7,14.6,37.1,14.6z M37.1,7.4c-1.4,0-2.5,1.1-2.5,2.5
	s1.1,2.5,2.5,2.5s2.5-1.1,2.5-2.5S38.5,7.4,37.1,7.4z M27.8,30.1H16.3c-0.6,0-1.1-0.5-1.1-1.1V17.5c0-0.6,0.5-1.1,1.1-1.1h11.5
	c0.6,0,1.1,0.5,1.1,1.1V29C28.9,29.6,28.4,30.1,27.8,30.1z M17.4,27.9h9.4v-9.4h-9.4V27.9z M11.1,30.1H3.8c-0.6,0-1.1-0.5-1.1-1.1
	v-7.3c0-0.6,0.5-1.1,1.1-1.1h7.3c0.6,0,1.1,0.5,1.1,1.1V29C12.2,29.6,11.7,30.1,11.1,30.1z M4.9,27.9H10v-5.1H4.9
	C4.9,22.8,4.9,27.9,4.9,27.9z M29.1,13.3H20c-0.4,0-0.7-0.2-0.9-0.5c-0.2-0.3-0.2-0.7,0-1.1l4.5-7.9c0.4-0.7,1.5-0.7,1.9,0l4.5,7.9
	c0.2,0.3,0.2,0.7,0,1.1C29.8,13.1,29.5,13.3,29.1,13.3z M21.9,11.2h5.3l-2.7-4.6C24.5,6.6,21.9,11.2,21.9,11.2z M32.5,43.2h-9.4
	c-0.4,0-0.7-0.2-0.9-0.5c-0.2-0.3-0.2-0.7,0-1.1l4.7-8.2c0.4-0.7,1.5-0.7,1.9,0l4.7,8.2c0.2,0.3,0.2,0.7,0,1.1
	C33.2,42.9,32.9,43.2,32.5,43.2z M24.9,41h5.7l-2.9-4.9L24.9,41z M11.3,46.7c-3.9,0-7-3.2-7-7s3.2-7,7-7s7,3.2,7,7
	S15.1,46.7,11.3,46.7z M11.3,34.8c-2.7,0-4.9,2.2-4.9,4.9s2.2,4.9,4.9,4.9s4.9-2.2,4.9-4.9S13.9,34.8,11.3,34.8z M39.2,32.6
	c-4.4,0-8-3.6-8-8s3.6-8,8-8s8,3.6,8,8S43.6,32.6,39.2,32.6z M39.2,18.7c-3.2,0-5.9,2.6-5.9,5.9c0,3.2,2.6,5.9,5.9,5.9
	c3.2,0,5.9-2.6,5.9-5.9S42.5,18.7,39.2,18.7z"/>
</svg>
